storage/app/icons/phosphoricons/duotone/device-tablet-camera-duotone.svg

<svg xmlns="http://www.w3.org/2000/svg" fill="currentColor" viewBox="0 0 256 256"><path d="M208 48v160a16 16 0 0 1-16 16H64a16 16 0 0 1-16-16V48a16 16 0 0 1 16-16h128a16 16 0 0 1 16 16" opacity=".2"/><path d="M192 24H64a24 24 0 0 0-24 24v160a24 24 0 0 0 24 24h128a24 24 0 0 0 24-24V48a24 24 0 0 0-24-24m8 184a8 8 0 0 1-8 8H64a8 8 0 0 1-8-8V48a8 8 0 0 1 8-8h128a8 8 0 0 1 8 8ZM140 68a12 12 0 1 1-12-12 12 12 0 0 1 12 12"/></svg>

<svg xmlns="http://www.w3.org/2000/svg" viewBox="0 0 256 256" fill="currentColor"><path d="M208,48V208a16,16,0,0,1-16,16H64a16,16,0,0,1-16-16V48A16,16,0,0,1,64,32H192A16,16,0,0,1,208,48Z" opacity="0.2"/><path d="M192,24H64A24,24,0,0,0,40,48V208a24,24,0,0,0,24,24H192a24,24,0,0,0,24-24V48A24,24,0,0,0,192,24Zm8,184a8,8,0,0,1-8,8H64a8,8,0,0,1-8-8V48a8,8,0,0,1,8-8H192a8,8,0,0,1,8,8ZM140,68a12,12,0,1,1-12-12A12,12,0,0,1,140,68Z"/></svg>
